packages/ui-icons/svg/Solid/mature-light.svg

<svg viewBox="0 0 1920 1920" version="1.1" xmlns="http://www.w3.org/2000/svg">
    <path d="M1117.93694,1672.03012 L1286.67106,1629.56424 L1231.44282,696.444235 L1315.80988,675.324235 L1539.77224,1565.97835 L1877.46635,1481.04659 L1518.99106,55.9548235 L928.195765,204.585412 L957.899294,965.470118 C958.689882,985.234824 933.278118,991.672471 924.581647,973.827765 L590.727529,289.517176 L0.0451764706,438.034824 L358.407529,1863.01365 L695.988706,1778.08188 L471.913412,887.540706 L556.280471,866.307765 L949.202824,1714.496 L1117.93694,1672.03012 Z" stroke="none" stroke-width="1" fill-rule="evenodd"/>
</svg>

<svg viewBox="0 0 1920 1920" version="1.1" xmlns="http://www.w3.org/2000/svg">
    <path d="M1117.937 1672.03l168.734-42.466-55.228-933.12 84.367-21.12 223.962 890.654 337.694-84.931L1518.991 55.955l-590.795 148.63 29.703 760.885c.79 19.765-24.62 26.202-33.317 8.358l-333.854-684.31L.045 438.034l358.363 1424.979 337.58-84.932L471.914 887.54l84.367-21.233 392.923 848.188 168.734-42.466z" stroke="none" stroke-width="1" fill-rule="evenodd"/>
</svg>
